X:079 
T:High Road to Linton (reel) 
B:CRE3.166	(BÃÂÃÂÃÂÃÂ³thar MÃÂÃÂÃÂÃÂ³r go Linton)
F:file ID: cre.3/079high_r
N:CRE doesn't repeat the first four measures.
R:reel
L:1/8
Q:180
M:C
K:A
cefe a3g|fece faaB|cefe a3e|f2ec BcAB:|
ceea fdd/c/d|ecc/B/c dBB/A/B|ceea faec|dacg aAAB|
ceea fdd/c/d|ecc/B/c dBB/A/B|ceea faec|d2Bd cAA2||

%%%

